icons/onedrive-dark.svg

<svg width="256" height="256" viewBox="0 0 256 256" fill="none" xmlns="http://www.w3.org/2000/svg">
<path d="M196 0H60C26.8629 0 0 26.8629 0 60V196C0 229.137 26.8629 256 60 256H196C229.137 256 256 229.137 256 196V60C256 26.8629 229.137 0 196 0Z" fill="#282828"/>
<path d="M105.498 99.4161L145.372 123.497L169.45 113.528C174.304 111.442 179.529 110.361 184.812 110.349H187.412C184.539 99.2132 178.496 89.1505 170.018 81.3811C161.539 73.6117 150.989 68.4695 139.647 66.5779C128.304 64.6864 116.656 66.1269 106.116 70.7246C95.5754 75.3224 86.5953 82.88 80.2644 92.4808H80.8904C89.5735 92.494 98.086 94.8931 105.498 99.4161Z" fill="#0364B8"/>
<path d="M105.498 99.4158C98.0289 94.8445 89.4545 92.3968 80.6978 92.3359H80.0717C71.4299 92.402 62.9702 94.8279 55.6065 99.3519C48.2427 103.876 42.2546 110.326 38.2889 118.005C34.3232 125.685 32.5307 134.302 33.1048 142.926C33.6789 151.55 36.5979 159.853 41.5466 166.939L76.7008 152.153L92.5443 145.748L127.361 131.299L145.516 123.641L105.498 99.4158Z" fill="#0078D4"/>
<path d="M187.027 110.252H184.427C179.164 110.253 173.955 111.318 169.113 113.383L145.372 123.401L152.258 127.542L174.844 140.932L184.475 146.807L218.185 167.036C221.269 161.354 222.874 154.987 222.852 148.522C222.83 142.057 221.182 135.701 218.059 130.04C214.937 124.379 210.44 119.595 204.983 116.129C199.527 112.662 193.285 110.625 186.835 110.204L187.027 110.252Z" fill="#1490DF"/>
<path d="M184.667 146.904L175.036 140.98L152.451 127.447L145.564 123.305L127.409 130.963L92.5924 145.411L76.9415 151.961L41.7874 166.795C46.1524 173.086 51.9765 178.225 58.7614 181.773C65.5462 185.321 73.0896 187.172 80.7459 187.168H184.427C191.39 187.172 198.223 185.289 204.201 181.718C210.179 178.148 215.078 173.024 218.377 166.892L184.667 146.904Z" fill="#28A8EA"/>
</svg>

<svg xmlns="http://www.w3.org/2000/svg" width="256" height="256" fill="none"><path fill="#282828" d="M196 0H60C26.863 0 0 26.863 0 60v136c0 33.137 26.863 60 60 60h136c33.137 0 60-26.863 60-60V60c0-33.137-26.863-60-60-60"/><path fill="#0364B8" d="m105.498 99.416 39.874 24.081 24.078-9.969a39.1 39.1 0 0 1 15.362-3.179h2.6a59.43 59.43 0 0 0-47.765-43.771A59.42 59.42 0 0 0 80.264 92.48h.626a47.4 47.4 0 0 1 24.608 6.935"/><path fill="#0078D4" d="M105.498 99.416a48.15 48.15 0 0 0-24.8-7.08h-.626a47.43 47.43 0 0 0-41.783 25.669 47.45 47.45 0 0 0 3.258 48.934L76.7 152.153l15.843-6.405 34.817-14.449 18.155-7.658z"/><path fill="#1490DF" d="M187.027 110.252h-2.6a39.1 39.1 0 0 0-15.314 3.131l-23.741 10.018 6.886 4.141 22.586 13.39 9.631 5.875 33.71 20.229a38.537 38.537 0 0 0-13.202-50.907 38.5 38.5 0 0 0-18.148-5.925z"/><path fill="#28A8EA" d="m184.667 146.904-9.631-5.924-22.585-13.533-6.887-4.142-18.155 7.658-34.817 14.448-15.65 6.55-35.155 14.834a47.39 47.39 0 0 0 38.959 20.373h103.681a38.53 38.53 0 0 0 33.95-20.276z"/></svg>
